src/static/logos/graphcool.svg

<?xml version="1.0" encoding="UTF-8"?>
<svg width="256px" height="300px" viewBox="0 0 256 300" version="1.1" xmlns="http://www.w3.org/2000/svg" xmlns:xlink="http://www.w3.org/1999/xlink" preserveAspectRatio="xMidYMid">
    <g>
        <path d="M241.982317,98.9023279 C227.429207,90.7063734 209.138081,101.400143 206.206644,103.238812 L143.371552,138.876036 C134.094466,131.507635 120.877352,131.820658 111.959479,139.619974 C103.041606,147.41929 100.970415,160.476982 107.037042,170.653158 C113.103669,180.829336 125.575148,185.217118 136.677024,181.081255 C147.778899,176.94539 154.339858,165.467314 152.269938,153.802214 L214.931571,118.243046 L215.313179,118.008876 C219.432802,115.406985 228.990327,111.512823 233.456865,114.036657 C236.674508,115.849307 238.513161,121.920384 238.6606,130.862214 L238.582544,130.862214 L238.582544,209.46532 C238.569536,216.797505 234.6583,223.569552 228.313841,227.244904 L138.237201,279.282711 C131.882252,282.937371 124.063419,282.937371 117.708469,279.282711 L27.631829,227.244904 C21.2873699,223.569552 17.376134,216.797505 17.3631267,209.46532 L17.3631267,105.433073 C17.376134,98.1008884 21.2873699,91.3288409 27.631829,87.6534887 L109.156999,40.6026388 C116.913493,49.5010187 129.912206,51.603533 140.078347,45.6041012 C150.244487,39.6046695 154.68749,27.2091259 150.647364,16.1175738 C146.607239,5.02602162 135.232724,-1.6078489 123.589661,0.33691806 C111.946599,2.28168503 103.345491,12.2521287 103.12934,24.0546164 L19.002303,72.6232357 C7.27166664,79.3897487 0.03153692,91.8907322 0,105.433073 L0,209.439302 C0.0128145568,222.975338 7.22896827,235.481467 18.9415928,242.266484 L109.018233,294.304291 C120.742371,301.048586 135.168608,301.048586 146.892746,294.304291 L236.969386,242.266484 C248.673983,235.486134 255.888899,222.992061 255.910979,209.46532 L255.910979,133.854388 L255.971689,133.854388 C256.414007,116.118169 251.669935,104.366298 241.982317,98.9023279 Z" fill="#27AE60"></path>
    </g>
</svg>

<svg width="256" height="300" xmlns="http://www.w3.org/2000/svg" preserveAspectRatio="xMidYMid"><path d="M241.982 98.902c-14.553-8.196-32.844 2.498-35.775 4.337l-62.835 35.637c-9.278-7.368-22.495-7.055-31.413.744-8.917 7.8-10.989 20.857-4.922 31.033 6.067 10.176 18.538 14.564 29.64 10.428 11.102-4.136 17.663-15.614 15.593-27.279l62.662-35.559.381-.234c4.12-2.602 13.677-6.496 18.144-3.972 3.218 1.812 5.056 7.883 5.204 16.825h-.078v78.603a20.59 20.59 0 01-10.27 17.78l-90.076 52.038a20.59 20.59 0 01-20.529 0l-90.076-52.038a20.59 20.59 0 01-10.269-17.78V105.433a20.59 20.59 0 0110.269-17.78l81.525-47.05c7.756 8.898 20.755 11 30.921 5.001 10.166-6 14.61-18.395 10.57-29.486C146.607 5.026 135.232-1.608 123.59.337c-11.643 1.945-20.245 11.915-20.46 23.718L19.001 72.623A37.979 37.979 0 000 105.433V209.44a37.979 37.979 0 0018.942 32.827l90.076 52.038a37.978 37.978 0 0037.875 0l90.076-52.038a37.979 37.979 0 0018.942-32.8v-75.612h.06c.443-17.736-4.301-29.488-13.989-34.952z" fill="#27AE60"/></svg>
